src/android-hangout.svg

<?xml version="1.0" encoding="utf-8"?>
<!-- Generated by IcoMoon.io -->
<!DOCTYPE svg PUBLIC "-//W3C//DTD SVG 1.1//EN" "http://www.w3.org/Graphics/SVG/1.1/DTD/svg11.dtd">
<svg version="1.1" xmlns="http://www.w3.org/2000/svg" xmlns:xlink="http://www.w3.org/1999/xlink" width="512" height="512" viewBox="0 0 512 512">
<path fill="#000000" d="M256 48c-97.321 0-176 77.114-176 172.487 0 95.38 78.679 172.487 176 172.487v71.026c100.425-47.689 176-152.195 176-243.513 0-95.373-78.679-172.487-176-172.487zM246 230.633l-21.057 40.367h-31.063l20.712-40h-30.592v-61h62v60.633zM328 230.633l-20.232 40.367h-31.063l20.704-40h-31.409v-61h62v60.633z"></path>
</svg>

<?xml version="1.0" encoding="utf-8"?>
<!-- Generator: Adobe Illustrator 16.2.1, SVG Export Plug-In . SVG Version: 6.00 Build 0)  -->
<!DOCTYPE svg PUBLIC "-//W3C//DTD SVG 1.1//EN" "http://www.w3.org/Graphics/SVG/1.1/DTD/svg11.dtd">
<svg version="1.1" id="Layer_1" xmlns="http://www.w3.org/2000/svg" xmlns:xlink="http://www.w3.org/1999/xlink" x="0px" y="0px"
	 width="512px" height="512px" viewBox="0 0 512 512" enable-background="new 0 0 512 512" xml:space="preserve">
<path d="M256,48c-97.321,0-176,77.114-176,172.487c0,95.38,78.679,172.487,176,172.487V464c100.425-47.689,176-152.195,176-243.513
	C432,125.114,353.321,48,256,48z M246,230.633L224.943,271H193.88l20.712-40H184v-61h62V230.633z M328,230.633L307.768,271h-31.063
	l20.704-40H266v-61h62V230.633z"/>
</svg>
